X:1
T:Organ Symphony (finale theme)
C:Camille Saint-Saëns
M:4/4
L:1/4
Q:1/4=132
K:C
% Grand Maestoso finale — Saint-Saëns Symphony No.3, Op.78, range G4–D5
G | c B A G | c3 d | c B A G | G4 |
G A B c | d2 c B | A G A B | c4 |]
